public/img/edit.svg

<svg width="100" height="100" viewBox="0 0 100 100" fill="none" xmlns="http://www.w3.org/2000/svg">
<path d="M54.49 23L77 45.53C76.9214 45.5677 76.8475 45.6147 76.78 45.67L35 87.46L30.15 92.32C30.0974 92.3789 30.0326 92.4255 29.96 92.4566C29.8874 92.4877 29.8089 92.5025 29.73 92.5H7.79003C7.55003 92.5 7.50003 92.44 7.50003 92.21C7.50003 84.91 7.50003 77.61 7.50003 70.31C7.49751 70.2311 7.51232 70.1526 7.54342 70.08C7.57452 70.0075 7.62115 69.9426 7.68003 69.89L54.33 23.24C54.3897 23.1644 54.4432 23.0842 54.49 23V23Z" fill="white"/>
<path d="M82 40.54L59.47 18L59.58 17.88L68.66 8.88003C69.0984 8.42485 69.6242 8.06277 70.2058 7.81546C70.7874 7.56814 71.413 7.44067 72.045 7.44067C72.677 7.44067 73.3025 7.56814 73.8841 7.81546C74.4657 8.06277 74.9915 8.42485 75.43 8.88003L90.68 24C91.2661 24.5228 91.7449 25.1545 92.09 25.86C92.4712 26.7324 92.5797 27.6997 92.4012 28.6349C92.2228 29.57 91.7657 30.4294 91.09 31.1L84.16 38.25L82 40.54Z" fill="white"/>
</svg>

<svg id="Слой_1" data-name="Слой 1" xmlns="http://www.w3.org/2000/svg" viewBox="0 0 100 100"><title>icons</title><path d="M54.49,23,77,45.53a1.09,1.09,0,0,0-.22.14L35,87.46l-4.85,4.86a.54.54,0,0,1-.42.18H7.79c-.24,0-.29-.06-.29-.29q0-10.95,0-21.9a.54.54,0,0,1,.18-.42L54.33,23.24A1.79,1.79,0,0,0,54.49,23Z"/><path d="M82,40.54,59.47,18l.11-.12,9.08-9a4.7,4.7,0,0,1,6.77,0L90.68,24a6.06,6.06,0,0,1,1.41,1.86,4.72,4.72,0,0,1-1,5.24l-6.93,7.15Z"/></svg>
